icons/Crystal-Light.svg

<svg width="256" height="256" viewBox="0 0 256 256" fill="none" xmlns="http://www.w3.org/2000/svg">
<rect width="256" height="256" rx="60" fill="#F4F4ED"/>
<path d="M226.479 154.975L155.26 226.052C154.975 226.337 154.548 226.479 154.263 226.337L56.9769 200.271C56.5495 200.128 56.2647 199.843 56.2647 199.558L30.0559 102.415C29.9134 101.988 30.0559 101.703 30.3408 101.418L101.56 30.3408C101.845 30.0559 102.272 29.9134 102.557 30.0559L199.843 56.1222C200.271 56.2647 200.555 56.5495 200.555 56.8344L226.622 153.978C226.907 154.405 226.764 154.69 226.479 154.975V154.975ZM131.045 77.6305L35.4686 103.127C35.3261 103.127 35.1837 103.412 35.3261 103.554L105.264 173.35C105.406 173.492 105.691 173.492 105.691 173.207L131.33 77.7729C131.472 77.7729 131.188 77.4881 131.045 77.6305Z" fill="black"/>
</svg>

<svg xmlns="http://www.w3.org/2000/svg" width="256" height="256" fill="none" viewBox="0 0 256 256"><rect width="256" height="256" fill="#F4F4ED" rx="60"/><path fill="#000" d="m226.48 154.98-71.22 71.07c-.28.29-.71.43-1 .29l-97.28-26.07c-.43-.14-.72-.43-.72-.71l-26.2-97.14c-.15-.43 0-.72.28-1l71.22-71.08c.28-.28.71-.43 1-.28l97.28 26.06c.43.14.72.43.72.71l26.06 97.15c.29.43.14.71-.14 1m-95.43-77.35-95.58 25.5c-.14 0-.29.28-.14.42l69.93 69.8c.15.14.43.14.43-.14l25.64-95.44c.14 0-.14-.28-.29-.14"/></svg>
